src/WeatherTwentyOne/Resources/Images/fluent_weather_drizzle_20_filled.svg

<svg width="40" height="40" viewBox="0 0 40 40" fill="none" xmlns="http://www.w3.org/2000/svg">
<path d="M19.6875 6C24.5405 6 27.2928 9.148 27.6924 12.948H27.8145C30.9369 12.948 33.4688 15.422 33.4688 18.474C33.4688 21.526 30.9369 24 27.8145 24L26.4305 23.998V24H26.3714L24.4873 27.482C24.359 27.7095 24.1478 27.8767 23.8993 27.9476C23.6508 28.0185 23.3848 27.9874 23.1587 27.861C22.9325 27.7345 22.7643 27.523 22.6902 27.2718C22.6162 27.0206 22.6422 26.7499 22.7627 26.518L24.127 23.998H20.5478V24H20.4671L18.5811 27.482C18.4527 27.7095 18.2416 27.8767 17.9931 27.9476C17.7446 28.0185 17.4786 27.9874 17.2524 27.861C17.0263 27.7345 16.8581 27.523 16.784 27.2718C16.7099 27.0206 16.7359 26.7499 16.8564 26.518L18.2208 24H14.6318H14.5609L12.6748 27.482C12.5465 27.7095 12.3353 27.8767 12.0868 27.9476C11.8383 28.0185 11.5723 27.9874 11.3462 27.861C11.12 27.7345 10.9518 27.523 10.8777 27.2718C10.8037 27.0206 10.8297 26.7499 10.9502 26.518L12.3145 24H11.5605C8.43806 24 5.90625 21.526 5.90625 18.474C5.90625 15.534 8.253 13.132 11.216 12.958L11.6826 12.948C12.0862 9.122 14.8345 6 19.6875 6Z" fill="url(#paint0_linear)"/>
<path d="M15.254 28.6321C15.4806 28.7637 15.6464 28.9813 15.7151 29.2371C15.7838 29.4929 15.7496 29.7659 15.6202 29.9961L13.6515 33.4961C13.5187 33.7197 13.3051 33.8817 13.0563 33.9474C12.8076 34.0131 12.5434 33.9774 12.3202 33.8478C12.097 33.7183 11.9326 33.5052 11.862 33.2541C11.7915 33.003 11.8204 32.7338 11.9426 32.5041L13.9114 29.0041C14.0409 28.774 14.2551 28.6055 14.5069 28.5357C14.7587 28.466 15.0274 28.5006 15.254 28.6321V28.6321Z" fill="url(#paint1_linear)"/>
<path d="M21.5262 29.996C21.6484 29.7662 21.6774 29.4971 21.6068 29.246C21.5362 28.9949 21.3718 28.7818 21.1486 28.6523C20.9255 28.5227 20.6613 28.487 20.4125 28.5527C20.1637 28.6184 19.9501 28.7804 19.8174 29.004L17.8486 32.504C17.7264 32.7337 17.6975 33.0028 17.768 33.2539C17.8386 33.505 18.003 33.7181 18.2262 33.8477C18.4494 33.9772 18.7136 34.0129 18.9624 33.9472C19.2111 33.8815 19.4247 33.7195 19.5575 33.496L21.5262 29.996V29.996Z" fill="url(#paint2_linear)"/>
<defs>
<linearGradient id="paint0_linear" x1="10.6129" y1="9.97472" x2="23.171" y2="24.7336" gradientUnits="userSpaceOnUse">
<stop offset="0.10243" stop-color="#28C2D1"/>
<stop offset="0.925347" stop-color="#4931DE"/>
</linearGradient>
<linearGradient id="paint1_linear" x1="12.4946" y1="29.4911" x2="15.4296" y2="31.4623" gradientUnits="userSpaceOnUse">
<stop offset="0.10243" stop-color="#28C2D1"/>
<stop offset="0.925347" stop-color="#4931DE"/>
</linearGradient>
<linearGradient id="paint2_linear" x1="18.3987" y1="29.5074" x2="21.3238" y2="31.4737" gradientUnits="userSpaceOnUse">
<stop offset="0.10243" stop-color="#28C2D1"/>
<stop offset="0.925347" stop-color="#4931DE"/>
</linearGradient>
</defs>
</svg>

<svg width="40" height="40" fill="none" xmlns="http://www.w3.org/2000/svg">
    <path
        d="M19.688 6c4.853 0 7.605 3.148 8.004 6.948h.122c3.123 0 5.655 2.474 5.655 5.526 0 3.052-2.532 5.526-5.655 5.526l-1.384-.002V24h-.059l-1.884 3.482a.987.987 0 01-.588.466.97.97 0 01-.74-.087.997.997 0 01-.469-.59 1.015 1.015 0 01.073-.753l1.364-2.52h-3.58V24h-.08l-1.886 3.482a.987.987 0 01-.588.466.97.97 0 01-.74-.087.998.998 0 01-.469-.59 1.014 1.014 0 01.072-.753L18.221 24H14.56l-1.886 3.482a.987.987 0 01-.588.466.97.97 0 01-.74-.087.997.997 0 01-.47-.59 1.015 1.015 0 01.073-.753L12.315 24h-.755c-3.122 0-5.654-2.474-5.654-5.526 0-2.94 2.347-5.342 5.31-5.516l.467-.01C12.086 9.122 14.835 6 19.688 6z"
        fill="url(#prefix__paint0_linear)" />
    <path
        d="M15.254 28.632c.227.132.392.35.461.605.069.256.035.529-.095.76l-1.968 3.5a.986.986 0 01-.596.45.97.97 0 01-.736-.1.997.997 0 01-.458-.593c-.07-.251-.042-.52.08-.75l1.97-3.5a.987.987 0 01.595-.468.97.97 0 01.747.096z"
        fill="url(#prefix__paint1_linear)" />
    <path
        d="M21.526 29.996c.122-.23.151-.499.08-.75a.997.997 0 00-.457-.594.97.97 0 00-.736-.1.986.986 0 00-.596.452l-1.968 3.5c-.123.23-.151.499-.081.75.07.251.235.464.458.594.223.13.488.165.736.1a.986.986 0 00.596-.452l1.968-3.5z"
        fill="url(#prefix__paint2_linear)" />
    <defs>
        <linearGradient id="prefix__paint0_linear" x1="10.613" y1="9.975" x2="23.171" y2="24.734"
            gradientUnits="userSpaceOnUse">
            <stop offset=".102" stop-color="#28C2D1" />
            <stop offset=".925" stop-color="#4931DE" />
        </linearGradient>
        <linearGradient id="prefix__paint1_linear" x1="12.495" y1="29.491" x2="15.43" y2="31.462"
            gradientUnits="userSpaceOnUse">
            <stop offset=".102" stop-color="#28C2D1" />
            <stop offset=".925" stop-color="#4931DE" />
        </linearGradient>
        <linearGradient id="prefix__paint2_linear" x1="18.399" y1="29.507" x2="21.324" y2="31.474"
            gradientUnits="userSpaceOnUse">
            <stop offset=".102" stop-color="#28C2D1" />
            <stop offset=".925" stop-color="#4931DE" />
        </linearGradient>
    </defs>
</svg>
